X:197
T:Buttered Pease.
T:Stumpie
N:elaborated into many other things including "Highland Wedding"
M:2/4
L:1/8
K:G
Bd d(c/B/)| ce        e(d/c/)| Bd         d(c/B/)  |cA A2|\
Bd dc/B/  | ce        ed/c/  |(B/c/d/B/) (A/B/c/A/)|BG
G::
Bd d(e/f/)| gf        g2     | Bd         d(c/B/)  |cA A2|\
Bd dg     |(f/g/a/f/) g2     |(B/c/d/B/) (A/B/c/A/)|BG G:|
